X: 10242
M: 2/4
L: 1/16
K: Bb
uF2 |\
f2ff f2b2 | f2de f2b2 | f2(de) fedc | B6 ||
uF2 |\
uB2 |\
c2f2f2f2 | fedc B2b2 | B2b2 fedc | B6 "_D.C."|]


